X:10
T:G\aangl\aat efter Mattias Blom
%O:Sweden
A:H\"alsingland
O:H\"alsingland
R:Snoa, G\aangl\aat
Z:Bob Wyttenbach 8/14/02 from NFF 2001 tunebook
M:2/4
L:1/8
%Q:1/4=120
K:G bass
P:A
D,|G,F,/G,/ A,G,/A,/|{A,}B,A,/B,/ CB,/A,/|G,F,/G,/  A,F,/A,/|D,D B,>D,|
G,F,/G,/ A,G,/A,/|{A,}B,A,/B,/ CB,/A,/|G,F,/G,/ A,D,|G,3:|
P:B
B,|{B,}D>B, G,~G,|F,/A,/D, F,/A,/D,|C>A, ~F,E,/F,/|G,A,B,~C|
w:*Kom min kos-se, sk\"al-lek-o, sk\"al-lek-o, Kom min kos-se-e,|Kom min Ko-o
D>B, G,~G,|F,/A,/D, F,/A,/D,|C>A, ~F,E,/F,/|G,3:|
w:Kom min kos-se,|sk\"al-lek-o, sk\"al-lek-o,|Kom min sva-a-arta| kalv!
